X:1
T:Title
%%score 1 2 3
L:1/8
M:2/2
K:C
V:1 treble nm="Part_1"
V:2 treble-8 nm="Part_2"
V:3 treble-8 nm="Part_3"
V:1
 F8 | G4 A4 | F8 | G4 A4- | A4 _B4- | B4 A4- | A4 ^G4 | A8 | z4 F4 | G8 | A8 | G8 | z4 F4- | %13
 F4 F4 | E4 F4 | G6 F2 | E2 D2 D4- | D2 B,2 C4 | D8 | z8 | D8 | C8 | D4 F4- | F4 G4 | E6 D2 | F8 | %26
 z8 | D4 C4 | D4 F4- | F4 G4 | A6 F2 | G4 E4- | E2 D2 D4- | D2 C2 C2 B,2 | D8 |] %35
V:2
 F8 | c4 c4 | d8 | B4 c4 | d8- | d4 c4 | B8 | A8- | A8 | G4 E4 | D8 | E4 C4 | D8 | A8 | G4 D4 | %15
 E4 G4- | G4 F4 | E8 | D8- | D8 | G8 | A4 F4- | F4 D4 | A4 B4 | G8 | F8- | F8 | z8 | D8 | A4 G4 | %30
 F4 D4 | E4 G4- | G4 F4 | E8 | D8 |] %35
V:3
 c8 | C4 F4- | F4 D4 | G4 F4 | D4 G4- | G4 A4 | E8 | F8 | D8 | D4 C4 | F8 | G4 G4 | d8 | c8 | d8 | %15
 c4 B4- | B4 A4- | A4 G4 | A8 | z4 d4 | B8 | c4 A4- | A4 d4 | c4 d4 | B8 | c8 | z4 A4 | B4 A4 | %28
 d4 c4 | d4 D4- | D4 F4 | G4 B4- | B4 A4- | A4 G4 | A8 |] %35

